X:56
T:Edi be thu
O:Chant saxon
R:Chant
A:XIe s.
Z:Transcrit et/ou corrigé par B@D - 2005-03-27
Z:Pour toute observation mailto:-@-
M:6/8
L:1/8
Q:3/8=63
K:F
%%continueall 1
%%staves [1 2]
V:1 name=Bariton
F2c (cB)A | G2d c2F | (GA)B (A>G)F | (ED)E F2z |
w:E-di be_ thu, he-ven-quee-ne, fol-_kes froovre_ and en-_gles blis,
F2c (c/B/)(BA) | G2d c2F | (GA)B (AG)F | (ED)E F2z |
w:maid un-wem-_med,_ mo-der clee-ne, swich_ in world_ non o-_ther nis.
B2B (AG)F | (FD)E F2G | B2B (AG)F | (ED)E F2A |
w:On thee hit_ is wel_ eth-seen of al-le wim-men thu hast_ the pris. Mi
c2d (cB)A | G2d c2F | (GA)B (AG)F | (ED)E F3 |]
w:swee-te lev-_di, heer mi been and rew_ of me_ yif thi_ will is.
V:2 name=Guitare
A2A (AG)F | G2G A2A | G2G F2F | (GA)F F2z |
A2A (AG)F | G2G A2A | G2G F2F | (GA)G F2z |
G2G F2F | (GA)G F2F | G2G F2F | (G/A/)AG F2A |
A2A (AG)F | G2G A2A | G2G F2F | (GA)G F3 |]




%%header "$P0	 $IR 	$P1"
%%footer $D - Éditions Galouvielle - 2009 - À usage librement privé dans le cadre familial

